X: 555
T: Fanny Hill
B: jims roots
M:C|
L:1/8
Q: 1/4=100
K:G
V:1 
%N:In the repertory of Galax, Va., musicians John Rector,
%N:Uncle Charlie Higgins and Luther Davis
%D:http://www.youtube.com/watch?v=XecZ_6PdObc
ge | "G"dBGA BAGA | "E(m)"BJ[e2e2] ey[e2e2] ge | "G"dBGA BAGD | "D"EG2 "G"G G2 :|
|:ef | gfga gbag | "D"eaab a2 ga | "G"baba gedg | "D"efga "G"g2 :|
% abcbook-tune_id 6298c25d2b24f4b8f8cb7058


% abcbook-boost 0
% abcbook-tablature 
% abcbook-transpose 
% abcbook-lastupdated 1654178397909
% abcbook-soundfonts 
% abcbook-repeats 1


